build/img/btn-start-desktop-hover.svg

<svg width="190" height="60" viewBox="0 0 190 60" fill="none" xmlns="http://www.w3.org/2000/svg">
<g clip-path="url(#clip0_1766_25159)">
<path d="M189 47.9999C189 54.075 184.075 58.9999 178 58.9999L21.744 59C13.0863 59 7.82202 49.4612 12.4372 42.1362L35.1194 6.13618C37.1336 2.93932 40.6477 1 44.4262 1L178 1.00001C184.075 1.00001 189 5.92488 189 12L189 47.9999Z" fill="#B3C3FE" stroke="url(#paint0_linear_1766_25159)" stroke-width="2"/>
<rect width="46.9683" height="120.614" transform="matrix(0.635835 0.771825 -0.820943 0.57101 171.018 -18.6211)" fill="url(#paint1_linear_1766_25159)" fill-opacity="0.4"/>
<rect width="20.4768" height="120.614" transform="matrix(0.635835 0.771825 -0.820943 0.57101 145.018 -36.207)" fill="url(#paint2_linear_1766_25159)" fill-opacity="0.4"/>
</g>
<defs>
<linearGradient id="paint0_linear_1766_25159" x1="67" y1="-42.931" x2="163.247" y2="90.5589" gradientUnits="userSpaceOnUse">
<stop stop-color="white"/>
<stop offset="0.385417" stop-color="#B3C3FE" stop-opacity="0"/>
<stop offset="0.677083" stop-color="#B3C3FE" stop-opacity="0"/>
<stop offset="0.936883" stop-color="#8092D6"/>
</linearGradient>
<linearGradient id="paint1_linear_1766_25159" x1="-84.458" y1="20.1323" x2="-31.3619" y2="152.959" gradientUnits="userSpaceOnUse">
<stop stop-color="#DAE2FF"/>
<stop offset="0.928671" stop-color="white" stop-opacity="0"/>
</linearGradient>
<linearGradient id="paint2_linear_1766_25159" x1="-36.8212" y1="20.1323" x2="39.9155" y2="103.824" gradientUnits="userSpaceOnUse">
<stop stop-color="#DAE2FF"/>
<stop offset="0.928671" stop-color="white" stop-opacity="0"/>
</linearGradient>
<clipPath id="clip0_1766_25159">
<path d="M0 0H178C184.627 0 190 5.37258 190 12V48C190 54.6274 184.627 60 178 60H0V0Z" fill="white"/>
</clipPath>
</defs>
</svg>

<svg width="190" height="60" fill="none" xmlns="http://www.w3.org/2000/svg"><g clip-path="url(#clip0_1766_25159)"><path d="M189 48c0 6.075-4.925 11-11 11H21.744c-8.658 0-13.922-9.539-9.307-16.864l22.682-36A11 11 0 0144.426 1H178c6.075 0 11 4.925 11 11v36z" fill="#B3C3FE" stroke="url(#paint0_linear_1766_25159)" stroke-width="2"/><path transform="matrix(.63584 .77182 -.82094 .57101 171.018 -18.621)" fill="url(#paint1_linear_1766_25159)" fill-opacity=".4" d="M0 0h46.968v120.614H0z"/><path transform="matrix(.63584 .77182 -.82094 .57101 145.018 -36.207)" fill="url(#paint2_linear_1766_25159)" fill-opacity=".4" d="M0 0h20.477v120.614H0z"/></g><defs><linearGradient id="paint0_linear_1766_25159" x1="67" y1="-42.931" x2="163.247" y2="90.559" gradientUnits="userSpaceOnUse"><stop stop-color="#fff"/><stop offset=".385" stop-color="#B3C3FE" stop-opacity="0"/><stop offset=".677" stop-color="#B3C3FE" stop-opacity="0"/><stop offset=".937" stop-color="#8092D6"/></linearGradient><linearGradient id="paint1_linear_1766_25159" x1="-84.458" y1="20.132" x2="-31.362" y2="152.959" gradientUnits="userSpaceOnUse"><stop stop-color="#DAE2FF"/><stop offset=".929" stop-color="#fff" stop-opacity="0"/></linearGradient><linearGradient id="paint2_linear_1766_25159" x1="-36.821" y1="20.132" x2="39.916" y2="103.824" gradientUnits="userSpaceOnUse"><stop stop-color="#DAE2FF"/><stop offset=".929" stop-color="#fff" stop-opacity="0"/></linearGradient><clipPath id="clip0_1766_25159"><path d="M0 0h178c6.627 0 12 5.373 12 12v36c0 6.627-5.373 12-12 12H0V0z" fill="#fff"/></clipPath></defs></svg>
